svgs/google_fi.svg

<svg width="192" height="192" fill="none" xmlns="http://www.w3.org/2000/svg"><rect x="38" y="30" width="116" height="28" rx="14" stroke="#000" stroke-width="12"/><rect x="126" y="162" width="80" height="28" rx="14" transform="rotate(-90 126 162)" stroke="#000" stroke-width="12"/><path d="M88 82H58c-11.046 0-20 8.954-20 20v46c0 7.732 6.268 14 14 14s14-6.268 14-14v-38h22c7.732 0 14-6.268 14-14s-6.268-14-14-14z" stroke="#000" stroke-width="12" stroke-linecap="round" stroke-linejoin="round"/></svg>

<svg width="192" height="192" viewBox="0 0 192 192" fill="none" xmlns="http://www.w3.org/2000/svg">
<rect x="38" y="30" width="116" height="28" rx="14" stroke="black" stroke-width="12"/>
<rect x="126" y="162" width="80" height="28" rx="14" transform="rotate(-90 126 162)" stroke="black" stroke-width="12"/>
<path d="M88 82H58C46.9543 82 38 90.9543 38 102V148C38 155.732 44.268 162 52 162C59.732 162 66 155.732 66 148V110H88C95.732 110 102 103.732 102 96C102 88.268 95.732 82 88 82Z" stroke="black" stroke-width="12" stroke-linecap="round" stroke-linejoin="round"/>
</svg>
